src/assets/img/icons/duotone-icons/Communication/Address-card.svg

<?xml version="1.0" encoding="UTF-8"?>
<svg width="24px" height="24px" viewBox="0 0 24 24" version="1.1" xmlns="http://www.w3.org/2000/svg" xmlns:xlink="http://www.w3.org/1999/xlink">
    <!-- Generator: Sketch 52.2 (67145) - http://www.bohemiancoding.com/sketch -->
    <title>Stockholm-icons / Communication / Address-card</title>
    <desc>Created with Sketch.</desc>
    <g id="Stockholm-icons-/-Communication-/-Address-card" stroke="none" stroke-width="1" fill="none" fill-rule="evenodd">
        <rect id="bound" x="0" y="0" width="24" height="24"></rect>
        <path d="M6,2 L18,2 C19.6568542,2 21,3.34314575 21,5 L21,19 C21,20.6568542 19.6568542,22 18,22 L6,22 C4.34314575,22 3,20.6568542 3,19 L3,5 C3,3.34314575 4.34314575,2 6,2 Z M12,11 C13.1045695,11 14,10.1045695 14,9 C14,7.8954305 13.1045695,7 12,7 C10.8954305,7 10,7.8954305 10,9 C10,10.1045695 10.8954305,11 12,11 Z M7.00036205,16.4995035 C6.98863236,16.6619875 7.26484009,17 7.4041679,17 C11.463736,17 14.5228466,17 16.5815,17 C16.9988413,17 17.0053266,16.6221713 16.9988413,16.5 C16.8360465,13.4332455 14.6506758,12 11.9907452,12 C9.36772908,12 7.21569918,13.5165724 7.00036205,16.4995035 Z" id="Combined-Shape" fill="#335EEA"></path>
    </g>
</svg>

<svg width="24" height="24" viewBox="0 0 24 24" xmlns="http://www.w3.org/2000/svg"><g fill="none" fill-rule="evenodd"><path d="M0 0h24v24H0z"/><path d="M6 2h12a3 3 0 013 3v14a3 3 0 01-3 3H6a3 3 0 01-3-3V5a3 3 0 013-3zm6 9a2 2 0 100-4 2 2 0 000 4zm-5 5.5c-.011.162.265.5.404.5h9.177c.418 0 .424-.378.418-.5-.163-3.067-2.348-4.5-5.008-4.5-2.623 0-4.775 1.517-4.99 4.5z" fill="#335EEA"/></g></svg>
